images/phone-svgrepo-com.svg

<?xml version="1.0" encoding="utf-8"?><!-- Uploaded to: SVG Repo, www.svgrepo.com, Generator: SVG Repo Mixer Tools -->
<svg width="800px" height="800px" viewBox="0 0 24 24" fill="none" xmlns="http://www.w3.org/2000/svg">
<path d="M18.7881 14.7644C17.4497 13.4433 15.9296 15.1939 14.9258 16.1847C11.8965 16.7827 6.44379 11.4006 7.6555 9.00853C8.65932 8.01771 10.4328 6.51729 9.09441 5.1962C7.75599 3.87511 5.85724 3.60737 4.85342 4.59819C4.02037 5.42046 3.41451 7.21449 4.92915 11.1016C6.44379 14.9887 8.86722 17.3807 13.0072 19.0751C17.1473 20.7694 18.5609 19.7728 19.394 18.9505C20.3978 17.9597 20.1265 16.0855 18.7881 14.7644Z" stroke="#464455" stroke-linecap="round" stroke-linejoin="round"/>
</svg>

<svg width="800" height="800" viewBox="0 0 24 24" fill="none" xmlns="http://www.w3.org/2000/svg"><path d="M18.788 14.764c-1.338-1.32-2.858.43-3.862 1.42-3.03.599-8.482-4.783-7.27-7.175 1.003-.991 2.777-2.492 1.438-3.813-1.338-1.32-3.237-1.589-4.24-.598-.834.822-1.44 2.616.075 6.504 1.515 3.887 3.938 6.279 8.078 7.973 4.14 1.694 5.554.698 6.387-.124 1.004-.991.733-2.866-.606-4.187Z" stroke="#464455" stroke-linecap="round" stroke-linejoin="round"/></svg>
